X:8
T:K.V. 487/8
M:2/4
L:1/8
K:C major
V:1
+f+ c2 c2 | d3 (e | f)d c B | .c/2.e/2.g/2.e/2 cc | c2c2 | d3 (e | f)d cB | c2 z2 ::
V:2
+f+ E2 E2 | G4 | G2G2 | E2 z2 | E2E2 | G4 | G,2 G,2 | C2 z2 ::
V:1
ec ge | d3 (^d | e)c ge | d4 | gf e^d | e^f ga | g2 ^f2 | g2 z2 :|]
V:2
c2 G2 | B2G2 | c2 G2 | B2G2 | B4 | c4 | d2 d2 | G2 z2 :|]
V:1
+p+ +<(+ GA Bc +<)+ | d2 z2 | +<(+ Bc de +<)+ | f2 z2 | +mf+ f2 z2 | +f+ +fermata+ f3 a | +>(+ ge fd +>)+ [|:
V:2
z4 | z4 | +<(+ GABc +<)+ | d2 z d | +mf+ Bd BG | +f+ +fermata+ G,3 z | z4 [|:
V:1
c2c2 | d3 (e | f)d cB | c/2e/2g/2e/2 cc | +mf+ c2 c2 | d3 (e | f)d cB | c2 z2 :|]
V:2
+p+ E2E2 | G4 | G2 G2 | E2 z2 | +mf+ E2E2 | G4 | G,2 G,2 | C2 z2 :|]
V:1
e2 (fd) | (ge) c2 | +p+ e2 (fd) | +fermata+ g4 | ^c2 c2 | (dagd) | c2 (ed) | c2 z2 | +f+ e2 (fd) | (ge) c2 | e2 (fd) | +fermata+ g4 | +p+ ^c2 c2 | (dafd) | c2 (ed) | c2 z g | g2>e2 | e2>c2 | dd cd | e2 z +p+ g | g2>e2 | e2>c2 | dc de | c2 z2 |]
V:2
c2 G2 | E4 | +p+ c2 G2 | +fermata+ E4 | (_B2AG) | F4 | G2 G,2 | C2 z2 | +f+ c2 G2 | E4 | c2 G2 | +fermata+ E4 | +p+ (_B2 AG) | F4 | G2 G,2 | C2 z +f+ e | e2>c2 | c2>E2 | G2 GG | c2 z +p+ e | e2>c2 | c2>E2 | G2 G,2 | C2 z2 |]

